X:1
T:Ramsey County Jail
M:6/8
L:1/4
K:F
 C/2| C C/2 F G/2| A/2 A- A F/2| G G/2 F E/2| F3/2- F F/2| F F/4A/4 B c/4c/4|\
 B/2 G- G E/2| G G/2 F E/2| F3/2- F G/4G/4| A A/2 d B/2| B/2 c- c A/2|\
 c A/2 c A/2| c3/2- c C/4C/4| C C/2 F G/2| A A/2 A A/4G/4| G F/2 F E/2|\
 F3/2 z||
